X: 36880
T: Shoe The Donkey
R: mazurka
M: 3/4
K: Gmajor
Bc|:d2 b2 d2|g4 dg|f2 e2 d2|A3 BAG|
F2 A2 d2|f4 fe|d2 cd ed|B4 Bc|
d2 b2 d2|g4 dg|f2 e2 d2|A3 BAG|
F2 A2 d2|f4 fe|d2 cd ef|g4:|

